Cloud/dashboard/static/tracks/sochi.svg

<?xml version="1.0" encoding="UTF-8"?>
<!-- Uploaded to: SVG Find, www.svgfind.com, Generator: SVG Find Mixer Tools -->
<svg fill="#000000" width="800px" height="800px" version="1.1" viewBox="144 144 512 512" xmlns="http://www.w3.org/2000/svg">
 <path d="m602.61 556.55-80.988-25.953c-1.7695-0.56641-3.6055-0.85547-5.4531-0.85547-7.7969 0-14.633 4.9883-17.012 12.414l-3.5859 10.332-29.754-9.5352c-4.2344-1.3555-9.6875-7.1914-13.906-14.867-2.0312-3.6875-0.68359-8.375 2.9922-10.449l12.617-7.1055c4.1133-2.3203 5.5898-7.5625 3.2852-11.691-2.1484-3.8359-4.1328-7.2891-5.9688-10.477-16.102-27.992-19.453-33.82-10.578-94.984 11.094-76.387 1.5898-126.46-31.766-167.43-5.3867-6.6289-15.777-7.9727-22.738-2.9141l-46.543 33.812c-2.1797 1.5859-4.7539 2.4375-7.4492 2.4688l-17.246 0.19922c-1.918 0-3.7031-1.1133-4.5391-2.8398l-31.25-64.176c-2.1602-4.4375-7.043-7.1094-11.977-6.5352l-21.375 2.5469c-9.6289 1.1484-18.777 4.8828-26.457 10.797-12.012 9.2539-28.805 22.613-40.59 33.703-2.5195 2.3711-3.9531 5.5859-4.0312 9.0469-0.078125 3.4648 1.2148 6.7422 3.6289 9.2266 14.531 14.957 55.078 54.758 71.84 71.18 4.8555 4.7539 13.172 4.9297 18.219 0.37891 8.7461-7.8789 24.828-22.027 34.246-28.277 3.168-2.1016 11.715-6.9922 22.629-6.9922 13.672 0 25.984 7.4258 36.605 22.07 19.617 27.062-0.003906 56.004-11.73 73.293l-0.78906 1.1641c-1.2188 1.7969-2.9336 3.1445-4.9805 3.8984l-1.3945 0.51562c-3.3789 1.25-6.0117 3.9141-7.2188 7.3125-1.2031 3.4023-0.83984 7.1328 1.0039 10.238l77.336 130.26c11.27 18.98 29.051 33.141 50.07 39.875l37 11.855-1.5625 4.9375-40.984-12.973-10.941-3.4648 10.613 12.113 4.4258-2.1016 40.152 12.711 3.0703-9.6953 75.328 24.141c0.8125 0.26172 1.6484 0.39453 2.4961 0.39453 3.9844 0 7.3594-2.8555 8.0273-6.7812l6.1328-36.129c1.0859-6.375-2.7461-12.676-8.9102-14.652zm-6.7422 46.98-115.04-36.867c-18.684-5.9883-34.492-18.578-44.512-35.453l-77.336-130.25c-0.44141-0.73828-0.29687-1.4336-0.17578-1.7812 0.12891-0.34375 0.44922-0.97266 1.2539-1.2656l1.3945-0.51562c4.0156-1.4805 7.4102-4.1406 9.8008-7.6797l0.78125-1.1523c12.332-18.188 35.285-52.043 11.547-84.793-15.703-21.664-32.984-26.207-44.715-26.207-13.152 0-23.297 5.4297-28.168 8.6641-9.957 6.6094-26.461 21.121-35.41 29.18-1.2461 1.1289-3.3125 1.0859-4.5078-0.09375-16.73-16.391-57.211-56.125-71.668-71.004-0.52734-0.54688-0.8125-1.2656-0.79297-2.0234 0.015625-0.75781 0.32812-1.4609 0.87891-1.9766 11.488-10.809 28.004-23.949 39.836-33.062 6.2461-4.8125 13.691-7.8516 21.523-8.7852l21.586-2.5586c0.66406 0 1.2852 0.38672 1.5742 0.98828l31.258 64.172c2.5039 5.1484 7.8203 8.4727 13.723 8.4727h0.003907l17.176-0.19922c4.7812-0.054687 9.3555-1.5664 13.227-4.3789l46.543-33.812c2.793-2.0312 6.9414-1.5 9.082 1.1328 31.41 38.586 40.266 86.34 29.625 159.68-9.3711 64.594-5.3047 71.664 11.809 101.41 1.6133 2.8086 3.3555 5.8359 5.2148 9.1406l-11.387 6.4102c-8.4414 4.7578-11.52 15.527-6.8555 24 2.6641 4.8477 9.9102 16.469 19.621 19.582l29.758 9.5352c5.3164 1.7188 11.234-1.3711 12.922-6.6523l3.2578-10.16c1.293-4.0352 5.7852-6.3906 9.8711-5.0781l80.984 25.953c1.4531 0.46484 2.3516 1.9453 2.0938 3.4414z"/>
</svg>

<?xml version="1.0" encoding="utf-8"?>
<svg fill="#000000" width="800px" height="800px" version="1.1" viewBox="144 144 512 512" xmlns="http://www.w3.org/2000/svg">
  <path d="M 602.61 556.55 L 521.622 530.597 C 519.853 530.031 518.016 529.742 516.169 529.742 C 508.372 529.742 501.536 534.73 499.157 542.156 L 495.571 552.487 L 465.817 542.952 C 461.583 541.597 456.129 535.761 451.911 528.085 C 449.88 524.398 451.227 519.71 454.903 517.636 L 467.52 510.531 C 471.633 508.21 473.11 502.968 470.805 498.84 C 468.657 495.004 466.673 491.551 464.837 488.363 C 448.735 460.371 445.384 454.543 454.259 393.379 C 465.353 316.992 455.848 266.919 422.493 225.949 C 417.106 219.32 406.716 217.976 399.755 223.035 L 353.212 256.847 C 351.032 258.433 348.458 259.284 345.762 259.316 L 328.516 259.515 C 326.598 259.515 324.813 258.401 323.977 256.675 L 292.727 192.499 C 290.567 188.061 285.684 185.39 280.75 185.964 L 259.375 188.511 C 249.746 189.659 240.598 193.393 232.918 199.308 C 220.906 208.562 204.113 221.921 192.328 233.011 C 189.809 235.382 188.375 238.597 188.297 242.058 C 188.219 245.522 189.512 248.8 191.926 251.284 C 206.457 266.241 247.004 306.042 263.766 322.464 C 268.621 327.218 276.938 327.394 281.985 322.843 C 290.731 314.964 306.813 300.816 316.231 294.566 C 319.399 292.464 327.946 287.574 338.86 287.574 C 352.532 287.574 364.844 295 375.465 309.644 C 395.082 336.706 375.461 365.648 363.735 382.937 L 362.946 384.101 C 361.727 385.898 360.012 387.245 357.965 387.999 L 356.571 388.515 C 353.192 389.765 350.559 392.429 349.352 395.827 C 348.149 399.23 348.512 402.96 350.356 406.065 L 427.692 536.326 C 438.962 555.305 456.743 569.466 477.762 576.201 L 594.864 613.723 C 595.676 613.985 596.512 614.118 597.36 614.118 C 601.344 614.118 604.719 611.262 605.387 607.337 L 611.52 571.208 C 612.606 564.833 608.774 558.531 602.61 556.556 L 602.61 556.55 Z M 595.868 603.53 L 480.828 566.663 C 462.144 560.675 446.336 548.085 436.316 531.21 L 358.98 400.96 C 358.538 400.222 358.683 399.526 358.804 399.179 C 358.933 398.835 359.253 398.206 360.058 397.913 L 361.452 397.398 C 365.468 395.917 368.863 393.257 371.253 389.718 L 372.034 388.566 C 384.366 370.378 407.319 336.523 383.581 303.773 C 367.878 282.109 350.597 277.566 338.866 277.566 C 325.714 277.566 315.569 282.995 310.698 286.23 C 300.741 292.839 284.237 307.351 275.288 315.41 C 274.042 316.539 271.976 316.496 270.781 315.316 C 254.051 298.925 213.57 259.191 199.113 244.312 C 198.585 243.765 198.3 243.046 198.32 242.288 C 198.335 241.531 198.648 240.828 199.199 240.312 C 210.687 229.503 227.203 216.363 239.035 207.25 C 245.281 202.437 252.726 199.398 260.558 198.465 L 282.144 195.906 C 282.808 195.906 283.429 196.293 283.718 196.894 L 314.976 261.066 C 317.48 266.215 322.796 269.539 328.699 269.539 L 328.703 269.539 L 345.879 269.34 C 350.66 269.285 355.234 267.773 359.106 264.961 L 405.649 231.149 C 408.442 229.118 412.59 229.649 414.731 232.282 C 446.141 270.868 454.997 318.622 444.356 391.962 C 434.985 456.556 439.051 463.626 456.165 493.372 C 457.778 496.18 459.52 499.208 461.379 502.512 L 449.992 508.923 C 441.551 513.68 438.473 524.45 443.137 532.922 C 445.801 537.77 453.047 549.391 462.758 552.505 L 492.516 562.04 C 497.832 563.759 503.75 560.669 505.438 555.387 L 508.696 545.227 C 509.989 541.192 514.481 538.837 518.567 540.149 L 599.551 566.102 C 601.004 566.567 601.903 568.048 601.645 569.544 L 595.868 603.53 Z"/>
</svg>
